dist/img/SAUNA/icon/people.svg

<svg width="18" height="18" viewBox="0 0 18 18" fill="none" xmlns="http://www.w3.org/2000/svg">
<path d="M13.6875 4.3501C14.4124 4.3501 15 3.76247 15 3.0376C15 2.31272 14.4124 1.7251 13.6875 1.7251C12.9626 1.7251 12.375 2.31272 12.375 3.0376C12.375 3.76247 12.9626 4.3501 13.6875 4.3501Z" fill="#2F2F2F"/>
<path d="M4.3125 4.3501C5.03737 4.3501 5.625 3.76247 5.625 3.0376C5.625 2.31272 5.03737 1.7251 4.3125 1.7251C3.58763 1.7251 3 2.31272 3 3.0376C3 3.76247 3.58763 4.3501 4.3125 4.3501Z" fill="#2F2F2F"/>
<path d="M9 4.3501C9.72487 4.3501 10.3125 3.76247 10.3125 3.0376C10.3125 2.31272 9.72487 1.7251 9 1.7251C8.27513 1.7251 7.6875 2.31272 7.6875 3.0376C7.6875 3.76247 8.27513 4.3501 9 4.3501Z" fill="#2F2F2F"/>
<path d="M12.3373 9.15015L11.4935 6.03765C11.456 5.92515 11.3998 5.81265 11.3248 5.73765C10.9685 5.36265 10.5185 5.0814 10.031 4.91265C9.71228 4.80015 9.37478 4.7439 9.01853 4.7439C8.66228 4.7439 8.32478 4.80015 8.00603 4.91265C7.49978 5.0814 7.06853 5.36265 6.71228 5.73765C6.63728 5.8314 6.58103 5.92515 6.54353 6.03765L5.69978 9.15015C5.62478 9.45015 5.77478 9.78765 6.09353 9.86265C6.14978 9.8814 6.18728 9.8814 6.24353 9.8814C6.48728 9.8814 6.71228 9.71265 6.78728 9.4689L7.53728 6.7314V16.2752H8.66228V10.9126H9.41228V16.2564H10.5373V6.7314L11.2873 9.4689C11.3623 9.71265 11.5873 9.8814 11.831 9.8814C11.8873 9.8814 11.9248 9.8814 11.981 9.86265C12.2435 9.78765 12.4123 9.45015 12.3373 9.15015Z" fill="#2F2F2F"/>
<path d="M5.30619 9.05635L6.14994 5.94385C6.18744 5.7751 6.28119 5.6251 6.37494 5.49385C6.07494 5.23135 5.69994 5.0251 5.30619 4.89385C4.98744 4.78135 4.64994 4.7251 4.29369 4.7251C3.93744 4.7251 3.59994 4.78135 3.28119 4.89385C2.77494 5.0626 2.34369 5.34385 1.98744 5.71885C1.91244 5.8126 1.85619 5.90635 1.81869 6.01885L0.974944 9.1501C0.899944 9.4501 1.04994 9.7876 1.36869 9.8626C1.42494 9.88135 1.46244 9.88135 1.51869 9.88135C1.76244 9.88135 1.98744 9.7126 2.06244 9.46885L2.81244 6.73135V16.2751H3.93744V10.9126H4.68744V16.2564H5.81244V10.1813C5.41869 9.99385 5.19369 9.5251 5.30619 9.05635Z" fill="#2F2F2F"/>
<path d="M17.0251 9.15015L16.1626 6.03765C16.1251 5.92515 16.0688 5.81265 15.9938 5.73765C15.6376 5.36265 15.1876 5.0814 14.7001 4.91265C14.3813 4.80015 14.0438 4.7439 13.6876 4.7439C13.3313 4.7439 12.9938 4.80015 12.6751 4.91265C12.2813 5.0439 11.9251 5.25015 11.6063 5.51265C11.7188 5.6439 11.7938 5.7939 11.8313 5.9439L12.6751 9.0564C12.8063 9.52515 12.5626 9.9939 12.1688 10.1814V16.2752H13.2938V10.9126H14.0438V16.2564H15.1688V6.7314L15.9188 9.4689C15.9938 9.71265 16.2188 9.8814 16.4626 9.8814C16.5188 9.8814 16.5563 9.8814 16.6126 9.86265C16.9313 9.78765 17.1001 9.45015 17.0251 9.15015Z" fill="#2F2F2F"/>
</svg>

<svg width="18" height="18" viewBox="0 0 18 18" fill="none" xmlns="http://www.w3.org/2000/svg"><path d="M13.688 4.35a1.312 1.312 0 100-2.625 1.312 1.312 0 000 2.625zm-9.375 0a1.313 1.313 0 100-2.625 1.313 1.313 0 000 2.625zM9 4.35a1.313 1.313 0 100-2.625A1.313 1.313 0 009 4.35zm3.337 4.8l-.844-3.112a.782.782 0 00-.168-.3 3.257 3.257 0 00-1.294-.825 3.02 3.02 0 00-1.012-.17 3.02 3.02 0 00-1.013.17 3.13 3.13 0 00-1.294.825.95.95 0 00-.168.3L5.7 9.15c-.075.3.075.638.394.713.056.018.093.018.15.018a.58.58 0 00.543-.412l.75-2.738v9.544h1.125v-5.362h.75v5.343h1.125V6.731l.75 2.738a.58.58 0 00.544.412c.056 0 .094 0 .15-.018.262-.075.431-.413.356-.713z" fill="#2F2F2F"/><path d="M5.306 9.056l.844-3.112a1.27 1.27 0 01.225-.45 3.153 3.153 0 00-1.069-.6 3.02 3.02 0 00-1.012-.169 3.02 3.02 0 00-1.013.169 3.13 3.13 0 00-1.294.825.95.95 0 00-.168.3L.975 9.15c-.075.3.075.638.394.713.056.018.093.018.15.018a.58.58 0 00.543-.412l.75-2.738v9.544h1.125v-5.362h.75v5.343h1.125v-6.075c-.393-.187-.618-.656-.506-1.125zm11.719.094l-.862-3.112a.782.782 0 00-.17-.3 3.256 3.256 0 00-1.293-.825 3.02 3.02 0 00-1.012-.17 3.02 3.02 0 00-1.013.17 3.31 3.31 0 00-1.069.6c.113.13.188.28.225.43l.844 3.113a.965.965 0 01-.506 1.125v6.094h1.125v-5.362h.75v5.343h1.125V6.731l.75 2.738a.58.58 0 00.544.412c.056 0 .093 0 .15-.018.318-.075.487-.413.412-.713z" fill="#2F2F2F"/></svg>
